X:0904
T:My Love She's But a Lassie Yet
P:My Love She's But a Lassie Yet
C:Bremner's Reels, 1757 (as »Miss Farquharson's Reel«)
R:Reel (8x32)
B:RSCDS 9-4
Z:Anselm Lingnau <anselm@strathspey.org>
M:C|
L:1/4
K:D
|:A/B/4c/4|"D"dDFA|.d.D.D B/c/|dDFA|"A7".e.E.E A|
           "D"dDFA|"Em"Bgfe|"A7"d/c/B/A/ Bc|"D".d.D.D:|
|:f/g/|"D"af"A7"ge|"D".f.d.d f/g/|"D"af"Em"g"E"f|"A"eEE g|
       "D".a.f.ge|"Bm"fd"A"ec|"G"d/c/B/A/ "A7"Bc|"D".d.D.D:|
